.local/share/icons/Gruvbox-Plus-Dark/mimetypes/scalable/text-less.svg

<svg width="256" height="256" viewBox="0 0 256 256" fill="none" xmlns="http://www.w3.org/2000/svg">
<g opacity="0.4" filter="url(#filter0_f)">
<path d="M55.0839 15.5636H155.608L216.009 75.7129L216.011 224.609C216.011 233.52 208.749 240.737 199.838 240.737H55.0838C46.1734 240.737 39 233.564 39 224.654V31.6474C39 22.737 46.1734 15.5636 55.0838 15.5636H55.0839Z" fill="#282828"/>
</g>
<path d="M55.0839 15H155.608L216.009 75.1493L216.011 224.045C216.011 232.956 208.749 240.174 199.838 240.174H55.0838C46.1734 240.174 39 233 39 224.09V31.0838C39 22.1734 46.1734 15 55.0838 15H55.0839Z" fill="#ebdbb2"/>
<path fill-rule="evenodd" clip-rule="evenodd" d="M155.609 22.9787H55.0839C50.58 22.9787 46.9787 26.5799 46.9787 31.0838V224.09C46.9787 228.594 50.5799 232.195 55.0838 232.195H199.838C204.371 232.195 208.032 228.521 208.032 224.046V75.1493L155.609 22.9787ZM155.608 15H55.0839C46.1735 15 39 22.1734 39 31.0838V224.09C39 233 46.1734 240.174 55.0838 240.174H199.838C208.749 240.174 216.011 232.956 216.011 224.045L216.009 75.1493L155.608 15Z" fill="url(#paint0_linear)"/>
<path d="M68 125.193C69.4254 125.193 70.4549 124.781 71.0884 123.958C71.7219 123.134 72.0386 122.057 72.0386 120.727V113.552C72.0386 112.19 72.2128 110.987 72.5613 109.941C72.9097 108.864 73.4799 107.962 74.2718 107.233C75.0953 106.505 76.1723 105.95 77.5027 105.57C78.8647 105.19 80.5435 105 82.5391 105H83.4893V110.654H82.3015C80.8761 110.654 79.91 110.971 79.4032 111.604C78.9281 112.238 78.6905 113.22 78.6905 114.55V120.869C78.6905 122.517 78.4688 123.91 78.0253 125.051C77.5818 126.191 76.6949 127.173 75.3646 127.996C76.6949 128.82 77.5818 129.802 78.0253 130.942C78.4688 132.083 78.6905 133.476 78.6905 135.123V141.443C78.6905 142.773 78.9281 143.755 79.4032 144.389C79.91 145.022 80.8761 145.339 82.3015 145.339H83.4893V150.993H82.5391C80.5435 150.993 78.8647 150.803 77.5027 150.423C76.1723 150.043 75.0953 149.488 74.2718 148.76C73.4799 148.031 72.9097 147.128 72.5613 146.051C72.2128 145.006 72.0386 143.803 72.0386 142.44V135.266C72.0386 133.936 71.7219 132.859 71.0884 132.035C70.4549 131.211 69.4254 130.8 68 130.8V125.193Z" fill="url(#paint1_linear)"/>
<path d="M97.2726 142.678C95.2137 142.646 93.5349 142.425 92.2362 142.013C90.9692 141.601 89.9556 141.031 89.1954 140.302C88.4668 139.542 87.96 138.639 87.675 137.594C87.4216 136.517 87.2948 135.313 87.2948 133.983V106.473L94.3743 105.333V132.558C94.3743 133.191 94.4218 133.761 94.5169 134.268C94.6119 134.775 94.7861 135.203 95.0395 135.551C95.3246 135.899 95.7205 136.185 96.2273 136.406C96.7342 136.628 97.4152 136.771 98.2704 136.834L97.2726 142.678Z" fill="url(#paint2_linear)"/>
<path d="M101.141 129.897C101.141 127.68 101.473 125.747 102.138 124.1C102.835 122.422 103.738 121.028 104.847 119.919C105.955 118.811 107.222 117.971 108.648 117.401C110.105 116.831 111.593 116.546 113.114 116.546C116.662 116.546 119.465 117.639 121.524 119.824C123.583 121.978 124.612 125.161 124.612 129.374C124.612 129.786 124.596 130.245 124.565 130.752C124.533 131.227 124.501 131.655 124.47 132.035H108.41C108.568 133.492 109.249 134.648 110.453 135.504C111.657 136.359 113.272 136.786 115.299 136.786C116.598 136.786 117.865 136.676 119.101 136.454C120.368 136.2 121.397 135.899 122.189 135.551L123.139 141.3C122.759 141.49 122.252 141.68 121.619 141.87C120.985 142.06 120.273 142.219 119.481 142.345C118.72 142.504 117.897 142.631 117.01 142.726C116.123 142.821 115.236 142.868 114.349 142.868C112.1 142.868 110.136 142.535 108.458 141.87C106.81 141.205 105.433 140.302 104.324 139.162C103.247 137.99 102.439 136.612 101.901 135.028C101.394 133.445 101.141 131.734 101.141 129.897ZM117.77 127.189C117.738 126.587 117.628 126.001 117.438 125.431C117.279 124.861 117.01 124.354 116.63 123.91C116.281 123.467 115.822 123.103 115.252 122.817C114.713 122.532 114.032 122.39 113.209 122.39C112.417 122.39 111.736 122.532 111.166 122.817C110.596 123.071 110.121 123.419 109.74 123.863C109.36 124.306 109.059 124.829 108.838 125.431C108.648 126.001 108.505 126.587 108.41 127.189H117.77Z" fill="url(#paint3_linear)"/>
<path d="M137.25 137.119C138.549 137.119 139.467 136.992 140.006 136.739C140.544 136.485 140.813 135.995 140.813 135.266C140.813 134.696 140.465 134.205 139.768 133.793C139.071 133.35 138.01 132.859 136.585 132.32C135.476 131.908 134.462 131.481 133.544 131.037C132.657 130.594 131.897 130.071 131.263 129.469C130.63 128.836 130.139 128.091 129.79 127.236C129.442 126.381 129.268 125.352 129.268 124.148C129.268 121.804 130.139 119.951 131.881 118.589C133.623 117.227 136.015 116.546 139.055 116.546C140.576 116.546 142.033 116.688 143.427 116.973C144.82 117.227 145.929 117.512 146.753 117.829L145.517 123.34C144.694 123.055 143.791 122.802 142.809 122.58C141.859 122.358 140.782 122.247 139.578 122.247C137.361 122.247 136.252 122.865 136.252 124.1C136.252 124.385 136.3 124.639 136.395 124.861C136.49 125.082 136.68 125.304 136.965 125.526C137.25 125.716 137.63 125.938 138.105 126.191C138.612 126.413 139.245 126.666 140.006 126.951C141.558 127.521 142.841 128.091 143.854 128.662C144.868 129.2 145.66 129.802 146.23 130.467C146.832 131.101 147.243 131.813 147.465 132.605C147.719 133.397 147.845 134.316 147.845 135.361C147.845 137.832 146.911 139.701 145.042 140.968C143.205 142.235 140.592 142.868 137.202 142.868C134.985 142.868 133.132 142.678 131.643 142.298C130.186 141.918 129.173 141.601 128.602 141.348L129.79 135.599C130.994 136.074 132.229 136.454 133.496 136.739C134.763 136.992 136.015 137.119 137.25 137.119Z" fill="url(#paint4_linear)"/>
<path d="M160.311 137.119C161.609 137.119 162.528 136.992 163.066 136.739C163.605 136.485 163.874 135.995 163.874 135.266C163.874 134.696 163.526 134.205 162.829 133.793C162.132 133.35 161.071 132.859 159.645 132.32C158.537 131.908 157.523 131.481 156.604 131.037C155.718 130.594 154.957 130.071 154.324 129.469C153.69 128.836 153.199 128.091 152.851 127.236C152.502 126.381 152.328 125.352 152.328 124.148C152.328 121.804 153.199 119.951 154.942 118.589C156.684 117.227 159.075 116.546 162.116 116.546C163.636 116.546 165.094 116.688 166.487 116.973C167.881 117.227 168.99 117.512 169.813 117.829L168.578 123.34C167.754 123.055 166.852 122.802 165.87 122.58C164.919 122.358 163.842 122.247 162.639 122.247C160.421 122.247 159.313 122.865 159.313 124.1C159.313 124.385 159.36 124.639 159.455 124.861C159.55 125.082 159.74 125.304 160.025 125.526C160.311 125.716 160.691 125.938 161.166 126.191C161.673 126.413 162.306 126.666 163.066 126.951C164.618 127.521 165.901 128.091 166.915 128.662C167.928 129.2 168.72 129.802 169.291 130.467C169.892 131.101 170.304 131.813 170.526 132.605C170.779 133.397 170.906 134.316 170.906 135.361C170.906 137.832 169.972 139.701 168.103 140.968C166.266 142.235 163.652 142.868 160.263 142.868C158.046 142.868 156.193 142.678 154.704 142.298C153.247 141.918 152.233 141.601 151.663 141.348L152.851 135.599C154.055 136.074 155.29 136.454 156.557 136.739C157.824 136.992 159.075 137.119 160.311 137.119Z" fill="url(#paint5_linear)"/>
<path d="M188 130.8C186.575 130.8 185.545 131.211 184.912 132.035C184.278 132.859 183.961 133.936 183.961 135.266V142.44C183.961 143.803 183.787 145.006 183.439 146.051C183.09 147.128 182.504 148.031 181.681 148.76C180.889 149.488 179.812 150.043 178.45 150.423C177.119 150.803 175.456 150.993 173.461 150.993H172.511V145.339H173.698C175.124 145.339 176.074 145.022 176.549 144.389C177.056 143.755 177.31 142.773 177.31 141.443V135.123C177.31 133.476 177.531 132.083 177.975 130.942C178.418 129.802 179.305 128.82 180.635 127.996C179.305 127.173 178.418 126.191 177.975 125.051C177.531 123.91 177.31 122.517 177.31 120.869V114.55C177.31 113.22 177.056 112.238 176.549 111.604C176.074 110.971 175.124 110.654 173.698 110.654H172.511V105H173.461C175.456 105 177.119 105.19 178.45 105.57C179.812 105.95 180.889 106.505 181.681 107.233C182.504 107.962 183.09 108.864 183.439 109.941C183.787 110.987 183.961 112.19 183.961 113.552V120.727C183.961 122.057 184.278 123.134 184.912 123.958C185.545 124.781 186.575 125.193 188 125.193V130.8Z" fill="url(#paint6_linear)"/>
<path opacity="0.25" d="M155.608 17V61.2306C155.608 70.141 162.867 77.1605 171.777 77.1605L216.009 77.1493V75.1493L155.608 17Z" fill="#282828"/>
<path d="M155.608 15V59.2306C155.608 68.141 162.867 75.1605 171.777 75.1605L216.009 75.1493L155.608 15Z" fill="url(#paint7_linear)"/>
<defs>
<filter id="filter0_f" x="23.8778" y="0.441412" width="207.255" height="255.418" filterUnits="userSpaceOnUse" color-interpolation-filters="sRGB">
<feFlood flood-opacity="0" result="BackgroundImageFix"/>
<feBlend mode="normal" in="SourceGraphic" in2="BackgroundImageFix" result="shape"/>
<feGaussianBlur stdDeviation="7.5611" result="effect1_foregroundBlur"/>
</filter>
<linearGradient id="paint0_linear" x1="39" y1="15" x2="39" y2="240.174" gradientUnits="userSpaceOnUse">
<stop offset="1e-07" stop-color="#d3869b"/>
<stop offset="0.5" stop-color="#b16286"/>
<stop offset="1" stop-color="#8f3f71"/>
</linearGradient>
<linearGradient id="paint1_linear" x1="68" y1="105" x2="68" y2="150.993" gradientUnits="userSpaceOnUse">
<stop offset="1e-07" stop-color="#d3869b"/>
<stop offset="0.5" stop-color="#b16286"/>
<stop offset="1" stop-color="#8f3f71"/>
</linearGradient>
<linearGradient id="paint2_linear" x1="68" y1="105" x2="68" y2="150.993" gradientUnits="userSpaceOnUse">
<stop offset="1e-07" stop-color="#d3869b"/>
<stop offset="0.5" stop-color="#b16286"/>
<stop offset="1" stop-color="#8f3f71"/>
</linearGradient>
<linearGradient id="paint3_linear" x1="68" y1="105" x2="68" y2="150.993" gradientUnits="userSpaceOnUse">
<stop offset="1e-07" stop-color="#d3869b"/>
<stop offset="0.5" stop-color="#b16286"/>
<stop offset="1" stop-color="#8f3f71"/>
</linearGradient>
<linearGradient id="paint4_linear" x1="68" y1="105" x2="68" y2="150.993" gradientUnits="userSpaceOnUse">
<stop offset="1e-07" stop-color="#d3869b"/>
<stop offset="0.5" stop-color="#b16286"/>
<stop offset="1" stop-color="#8f3f71"/>
</linearGradient>
<linearGradient id="paint5_linear" x1="68" y1="105" x2="68" y2="150.993" gradientUnits="userSpaceOnUse">
<stop offset="1e-07" stop-color="#d3869b"/>
<stop offset="0.5" stop-color="#b16286"/>
<stop offset="1" stop-color="#8f3f71"/>
</linearGradient>
<linearGradient id="paint6_linear" x1="68" y1="105" x2="68" y2="150.993" gradientUnits="userSpaceOnUse">
<stop offset="1e-07" stop-color="#d3869b"/>
<stop offset="0.5" stop-color="#b16286"/>
<stop offset="1" stop-color="#8f3f71"/>
</linearGradient>
<linearGradient id="paint7_linear" x1="155.608" y1="15" x2="155.608" y2="75.1605" gradientUnits="userSpaceOnUse">
<stop offset="1e-07" stop-color="#d3869b"/>
<stop offset="0.5" stop-color="#b16286"/>
<stop offset="1" stop-color="#8f3f71"/>
</linearGradient>
</defs>
</svg>

<svg width="256" height="256" fill="none" version="1.1" viewBox="0 0 256 256" xmlns="http://www.w3.org/2000/svg">
  <path d="m55.08 15h100.5l60.4 60.15 2e-3 148.9c0 8.911-7.262 16.13-16.17 16.13h-144.8c-8.91 0-16.08-7.174-16.08-16.08v-193c0-8.91 7.173-16.08 16.08-16.08h1e-4z" fill="#ebdbb2"/>
  <path d="m155.6 22.98h-100.5c-4.504 0-8.105 3.601-8.105 8.105v193c0 4.504 3.601 8.105 8.105 8.105h144.8c4.533 0 8.194-3.674 8.194-8.149v-148.9l-52.42-52.17zm-1e-3 -7.979h-100.5c-8.91 0-16.08 7.173-16.08 16.08v193c0 8.91 7.173 16.08 16.08 16.08h144.8c8.911 0 16.17-7.218 16.17-16.13l-2e-3 -148.9-60.4-60.15z" clip-rule="evenodd" fill="url(#paint0_linear)" fill-rule="evenodd"/>
  <path d="m68 125.2c1.425 0 2.455-0.412 3.088-1.235 0.6335-0.824 0.9502-1.901 0.9502-3.231v-7.175c0-1.362 0.1742-2.565 0.5227-3.611 0.3484-1.077 0.9186-1.979 1.71-2.708 0.8235-0.728 1.9-1.283 3.231-1.663 1.362-0.38 3.041-0.57 5.036-0.57h0.9502v5.654h-1.188c-1.425 0-2.392 0.317-2.898 0.95-0.4751 0.634-0.7127 1.616-0.7127 2.946v6.319c0 1.648-0.2217 3.041-0.6652 4.182-0.4435 1.14-1.33 2.122-2.661 2.945 1.33 0.824 2.217 1.806 2.661 2.946 0.4435 1.141 0.6652 2.534 0.6652 4.181v6.32c0 1.33 0.2376 2.312 0.7127 2.946 0.5068 0.633 1.473 0.95 2.898 0.95h1.188v5.654h-0.9502c-1.996 0-3.674-0.19-5.036-0.57-1.33-0.38-2.407-0.935-3.231-1.663-0.7919-0.729-1.362-1.632-1.71-2.709-0.3485-1.045-0.5227-2.248-0.5227-3.611v-7.174c0-1.33-0.3167-2.407-0.9502-3.231s-1.663-1.235-3.088-1.235v-5.607z" fill="url(#paint1_linear)"/>
  <path d="m97.27 142.7c-2.059-0.032-3.738-0.253-5.036-0.665-1.267-0.412-2.281-0.982-3.041-1.711-0.7286-0.76-1.235-1.663-1.52-2.708-0.2534-1.077-0.3802-2.281-0.3802-3.611v-27.51l7.08-1.14v27.22c0 0.633 0.0475 1.203 0.1426 1.71 0.095 0.507 0.2692 0.935 0.5226 1.283 0.2851 0.348 0.681 0.634 1.188 0.855 0.5069 0.222 1.188 0.365 2.043 0.428l-0.9978 5.844z" fill="url(#paint1_linear)"/>
  <path d="m101.1 129.9c0-2.217 0.332-4.15 0.997-5.797 0.697-1.678 1.6-3.072 2.709-4.181 1.108-1.108 2.375-1.948 3.801-2.518 1.457-0.57 2.945-0.855 4.466-0.855 3.548 0 6.351 1.093 8.41 3.278 2.059 2.154 3.088 5.337 3.088 9.55 0 0.412-0.016 0.871-0.047 1.378-0.032 0.475-0.064 0.903-0.095 1.283h-16.06c0.158 1.457 0.839 2.613 2.043 3.469 1.204 0.855 2.819 1.282 4.846 1.282 1.299 0 2.566-0.11 3.802-0.332 1.267-0.254 2.296-0.555 3.088-0.903l0.95 5.749c-0.38 0.19-0.887 0.38-1.52 0.57-0.634 0.19-1.346 0.349-2.138 0.475-0.761 0.159-1.584 0.286-2.471 0.381s-1.774 0.142-2.661 0.142c-2.249 0-4.213-0.333-5.891-0.998-1.648-0.665-3.025-1.568-4.134-2.708-1.077-1.172-1.885-2.55-2.423-4.134-0.507-1.583-0.76-3.294-0.76-5.131zm16.63-2.708c-0.032-0.602-0.142-1.188-0.332-1.758-0.159-0.57-0.428-1.077-0.808-1.521-0.349-0.443-0.808-0.807-1.378-1.093-0.539-0.285-1.22-0.427-2.043-0.427-0.792 0-1.473 0.142-2.043 0.427-0.57 0.254-1.045 0.602-1.426 1.046-0.38 0.443-0.681 0.966-0.902 1.568-0.19 0.57-0.333 1.156-0.428 1.758h9.36z" fill="url(#paint1_linear)"/>
  <path d="m137.2 137.1c1.299 0 2.217-0.127 2.756-0.38 0.538-0.254 0.807-0.744 0.807-1.473 0-0.57-0.348-1.061-1.045-1.473-0.697-0.443-1.758-0.934-3.183-1.473-1.109-0.412-2.123-0.839-3.041-1.283-0.887-0.443-1.647-0.966-2.281-1.568-0.633-0.633-1.124-1.378-1.473-2.233-0.348-0.855-0.522-1.884-0.522-3.088 0-2.344 0.871-4.197 2.613-5.559s4.134-2.043 7.174-2.043c1.521 0 2.978 0.142 4.372 0.427 1.393 0.254 2.502 0.539 3.326 0.856l-1.236 5.511c-0.823-0.285-1.726-0.538-2.708-0.76-0.95-0.222-2.027-0.333-3.231-0.333-2.217 0-3.326 0.618-3.326 1.853 0 0.285 0.048 0.539 0.143 0.761 0.095 0.221 0.285 0.443 0.57 0.665 0.285 0.19 0.665 0.412 1.14 0.665 0.507 0.222 1.14 0.475 1.901 0.76 1.552 0.57 2.835 1.14 3.848 1.711 1.014 0.538 1.806 1.14 2.376 1.805 0.602 0.634 1.013 1.346 1.235 2.138 0.254 0.792 0.38 1.711 0.38 2.756 0 2.471-0.934 4.34-2.803 5.607-1.837 1.267-4.45 1.9-7.84 1.9-2.217 0-4.07-0.19-5.559-0.57-1.457-0.38-2.47-0.697-3.041-0.95l1.188-5.749c1.204 0.475 2.439 0.855 3.706 1.14 1.267 0.253 2.519 0.38 3.754 0.38z" fill="url(#paint1_linear)"/>
  <path d="m160.3 137.1c1.298 0 2.217-0.127 2.755-0.38 0.539-0.254 0.808-0.744 0.808-1.473 0-0.57-0.348-1.061-1.045-1.473-0.697-0.443-1.758-0.934-3.184-1.473-1.108-0.412-2.122-0.839-3.041-1.283-0.886-0.443-1.647-0.966-2.28-1.568-0.634-0.633-1.125-1.378-1.473-2.233-0.349-0.855-0.523-1.884-0.523-3.088 0-2.344 0.871-4.197 2.614-5.559 1.742-1.362 4.133-2.043 7.174-2.043 1.52 0 2.978 0.142 4.371 0.427 1.394 0.254 2.503 0.539 3.326 0.856l-1.235 5.511c-0.824-0.285-1.726-0.538-2.708-0.76-0.951-0.222-2.028-0.333-3.231-0.333-2.218 0-3.326 0.618-3.326 1.853 0 0.285 0.047 0.539 0.142 0.761 0.095 0.221 0.285 0.443 0.57 0.665 0.286 0.19 0.666 0.412 1.141 0.665 0.507 0.222 1.14 0.475 1.9 0.76 1.552 0.57 2.835 1.14 3.849 1.711 1.013 0.538 1.805 1.14 2.376 1.805 0.601 0.634 1.013 1.346 1.235 2.138 0.253 0.792 0.38 1.711 0.38 2.756 0 2.471-0.934 4.34-2.803 5.607-1.837 1.267-4.451 1.9-7.84 1.9-2.217 0-4.07-0.19-5.559-0.57-1.457-0.38-2.471-0.697-3.041-0.95l1.188-5.749c1.204 0.475 2.439 0.855 3.706 1.14 1.267 0.253 2.518 0.38 3.754 0.38z" fill="url(#paint1_linear)"/>
  <path d="m188 130.8c-1.425 0-2.455 0.411-3.088 1.235-0.634 0.824-0.951 1.901-0.951 3.231v7.174c0 1.363-0.174 2.566-0.522 3.611-0.349 1.077-0.935 1.98-1.758 2.709-0.792 0.728-1.869 1.283-3.231 1.663-1.331 0.38-2.994 0.57-4.989 0.57h-0.95v-5.654h1.187c1.426 0 2.376-0.317 2.851-0.95 0.507-0.634 0.761-1.616 0.761-2.946v-6.32c0-1.647 0.221-3.04 0.665-4.181 0.443-1.14 1.33-2.122 2.66-2.946-1.33-0.823-2.217-1.805-2.66-2.945-0.444-1.141-0.665-2.534-0.665-4.182v-6.319c0-1.33-0.254-2.312-0.761-2.946-0.475-0.633-1.425-0.95-2.851-0.95h-1.187v-5.654h0.95c1.995 0 3.658 0.19 4.989 0.57 1.362 0.38 2.439 0.935 3.231 1.663 0.823 0.729 1.409 1.631 1.758 2.708 0.348 1.046 0.522 2.249 0.522 3.611v7.175c0 1.33 0.317 2.407 0.951 3.231 0.633 0.823 1.663 1.235 3.088 1.235v5.607z" fill="url(#paint1_linear)"/>
  <path d="m155.6 17v44.23c0 8.91 7.259 15.93 16.17 15.93l44.23-0.0112v-2l-60.4-58.15z" fill="#282828" opacity=".25"/>
  <path d="m155.6 15v44.23c0 8.91 7.259 15.93 16.17 15.93l44.23-0.0112-60.4-60.15z" fill="url(#paint7_linear)"/>
  <defs>
    <linearGradient id="paint0_linear" x1="39" x2="39" y1="15" y2="240.2" gradientUnits="userSpaceOnUse">
      <stop stop-color="#d3869b" offset="1e-7"/>
      <stop stop-color="#b16286" offset=".5"/>
      <stop stop-color="#8f3f71" offset="1"/>
    </linearGradient>
    <linearGradient id="paint1_linear" x1="68" x2="68" y1="105" y2="151" gradientUnits="userSpaceOnUse">
      <stop stop-color="#d3869b" offset="1e-7"/>
      <stop stop-color="#b16286" offset=".5"/>
      <stop stop-color="#8f3f71" offset="1"/>
    </linearGradient>
    <linearGradient id="paint7_linear" x1="155.6" x2="155.6" y1="15" y2="75.16" gradientUnits="userSpaceOnUse">
      <stop stop-color="#d3869b" offset="1e-7"/>
      <stop stop-color="#b16286" offset=".5"/>
      <stop stop-color="#8f3f71" offset="1"/>
    </linearGradient>
  </defs>
</svg>
